public/img/logo.svg

<svg width="371" height="44" viewBox="0 0 371 44" fill="none" xmlns="http://www.w3.org/2000/svg">
<g clip-path="url(#clip0_1156_1468)">
<path d="M20.727 17.501L21.0527 17.0305L20.1116 16.3791L19.7859 16.8496L20.727 17.501ZM13.158 26.4256L12.8323 26.8961L13.7734 27.5475L14.0991 27.0769L13.158 26.4256ZM6.38192 19.3757H5.80964C5.80964 20.8501 4.63067 22.0334 3.19096 22.0334V22.6057V23.1779C5.27588 23.1779 6.95419 21.469 6.95419 19.3757H6.38192ZM3.19096 22.6057V22.0334C1.75124 22.0334 0.572274 20.8501 0.572274 19.3757H0H-0.572274C-0.572274 21.469 1.10604 23.1779 3.19096 23.1779V22.6057ZM0 19.3757H0.572274C0.572274 17.9012 1.75124 16.7179 3.19096 16.7179V16.1456V15.5734C1.10604 15.5734 -0.572274 17.2823 -0.572274 19.3757H0ZM3.19096 16.1456V16.7179C4.63067 16.7179 5.80964 17.9012 5.80964 19.3757H6.38192H6.95419C6.95419 17.2823 5.27588 15.5734 3.19096 15.5734V16.1456ZM14.5266 29.2445H13.9543C13.9543 30.719 12.7754 31.9023 11.3356 31.9023V32.4746V33.0468C13.4206 33.0468 15.0989 31.3379 15.0989 29.2445H14.5266ZM11.3356 32.4746V31.9023C9.89593 31.9023 8.71696 30.719 8.71696 29.2445H8.14469H7.57241C7.57241 31.3379 9.25073 33.0468 11.3356 33.0468V32.4746ZM8.14469 29.2445H8.71696C8.71696 27.7701 9.89593 26.5868 11.3356 26.5868V26.0145V25.4422C9.25073 25.4422 7.57241 27.1512 7.57241 29.2445H8.14469ZM11.3356 26.0145V26.5868C12.7754 26.5868 13.9543 27.7701 13.9543 29.2445H14.5266H15.0989C15.0989 27.1512 13.4206 25.4422 11.3356 25.4422V26.0145ZM24.8343 14.0386H24.2621C24.2621 15.513 23.0831 16.6964 21.6434 16.6964V17.2686V17.8409C23.7283 17.8409 25.4066 16.132 25.4066 14.0386H24.8343ZM21.6434 17.2686V16.6964C20.2037 16.6964 19.0247 15.513 19.0247 14.0386H18.4524H17.8802C17.8802 16.132 19.5585 17.8409 21.6434 17.8409V17.2686ZM18.4524 14.0386H19.0247C19.0247 12.5642 20.2037 11.3809 21.6434 11.3809V10.8086V10.2363C19.5585 10.2363 17.8802 11.9452 17.8802 14.0386H18.4524ZM21.6434 10.8086V11.3809C23.0831 11.3809 24.2621 12.5642 24.2621 14.0386H24.8343H25.4066C25.4066 11.9452 23.7283 10.2363 21.6434 10.2363V10.8086ZM20.2564 17.1753L19.7859 16.8496L13.158 26.4256L13.6285 26.7513L14.0991 27.0769L20.727 17.501L20.2564 17.1753ZM5.25752 21.6026L4.81925 21.9706L9.27677 27.2795L9.71505 26.9115L10.1533 26.5435L5.6958 21.2346L5.25752 21.6026Z" fill="white"/>
<path d="M28.8276 23.265C26.7685 22.974 25.3136 21.6087 25.3136 19.6838C25.3136 17.7142 27.3504 16.2593 29.0291 16.2593C30.4839 16.2593 31.603 16.8637 32.4088 18.0275L30.1258 19.6838C29.8348 19.4152 29.5215 19.2138 29.0962 19.2138C28.671 19.2138 28.4248 19.46 28.4248 19.7957C28.4248 20.1762 28.6933 20.4001 29.6334 20.512C31.715 20.7806 33.3041 21.8549 33.3041 24.1827C33.3041 26.488 31.4016 28.0548 28.9619 28.0548C27.2833 28.0548 26.0522 27.4729 25.0674 26.3537L27.7533 24.4065C28.089 24.7646 28.4919 24.8989 28.9843 24.8989C29.5663 24.8989 29.8348 24.5632 29.8348 24.1379C29.8348 23.6903 29.5439 23.3769 28.8276 23.265ZM46.3159 22.1683V27.8086H43.16V22.1683C43.16 20.3553 42.108 19.4376 40.8099 19.4376C39.3998 19.4376 38.1016 20.3553 38.1016 22.1683V27.8086H34.9233V16.5055H38.1016V17.2889C38.7283 16.5727 40.0489 16.2593 41.0784 16.2593C44.1672 16.2593 46.3159 18.9004 46.3159 22.1683ZM49.9544 14.5135C48.9696 14.5135 48.1191 13.6854 48.1191 12.7006C48.1191 11.8053 48.9696 10.9547 49.9544 10.9547C51.0288 10.9547 51.8569 11.7829 51.8569 12.7006C51.8569 13.6854 51.0288 14.5135 49.9544 14.5135ZM51.5659 16.5055V27.8086H48.3876V16.5055H51.5659ZM56.9866 33.2027H53.8084V16.5055H56.9866V17.2889C57.4791 16.7517 58.7101 16.2593 59.7397 16.2593C62.8508 16.2593 65.2905 18.9004 65.2905 22.1235C65.2905 25.3913 62.7613 28.0548 59.6725 28.0548C58.7325 28.0548 57.591 27.7191 56.9866 27.0028V33.2027ZM59.4263 19.4376C57.9491 19.4376 56.8523 20.5567 56.8523 22.1459C56.8523 23.7574 57.9491 24.8989 59.4263 24.8989C60.8812 24.8989 62.0674 23.7574 62.0674 22.1459C62.0674 20.5567 60.8812 19.4376 59.4263 19.4376ZM75.1565 23.7574L77.6857 25.7047C76.7233 27.1371 74.7312 28.0548 72.7168 28.0548C69.3147 28.0548 66.5841 25.3913 66.5841 22.1683C66.5841 18.9004 69.2028 16.2593 72.4482 16.2593C75.246 16.2593 77.3947 18.1395 78.0886 20.2434L71.7768 24.7646C72.0677 24.8765 72.3811 24.8989 72.7168 24.8989C73.6793 24.8989 74.6417 24.5632 75.1565 23.7574ZM69.8071 22.1683C69.8071 22.4368 69.8295 22.6831 69.8967 22.9069L74.015 19.9748C73.5674 19.6391 73.0526 19.4376 72.4482 19.4376C70.9934 19.4376 69.8071 20.5791 69.8071 22.1683ZM86.1563 16.3041V19.5943C85.843 19.4824 85.5073 19.4376 85.1491 19.4376C83.9181 19.4376 82.8661 20.3553 82.8661 22.1683V27.8086H79.6879V16.5055H82.8661V17.2889C83.56 16.5503 84.5 16.2593 85.373 16.2593C85.6415 16.2593 85.8654 16.2593 86.1563 16.3041ZM94.1818 19.4376H91.4959V23.0412C91.4959 24.317 92.6598 24.8989 94.1146 24.8989V28.0548C90.7349 28.0548 88.3176 26.0628 88.3176 23.1307V19.4376H86.6166V16.5055H88.3176V15.0283L91.4959 12.7229V16.5055H94.1818V19.4376ZM107.037 22.1683V27.8086H103.881V22.1683C103.881 20.3553 102.829 19.4376 101.531 19.4376C100.12 19.4376 98.8223 20.5791 98.8223 22.1683V27.8086H95.644V11.1338H98.8223V17.3113C99.4266 16.5727 100.77 16.2593 101.799 16.2593C104.888 16.2593 107.037 18.9004 107.037 22.1683ZM110.675 14.5135C109.69 14.5135 108.84 13.6854 108.84 12.7006C108.84 11.8053 109.69 10.9547 110.675 10.9547C111.749 10.9547 112.578 11.7829 112.578 12.7006C112.578 13.6854 111.749 14.5135 110.675 14.5135ZM112.287 16.5055V27.8086H109.108V16.5055H112.287ZM125.922 22.1683V27.8086H122.766V22.1683C122.766 20.3553 121.714 19.4376 120.416 19.4376C119.005 19.4376 117.707 20.3553 117.707 22.1683V27.8086H114.529V16.5055H117.707V17.2889C118.334 16.5727 119.655 16.2593 120.684 16.2593C123.773 16.2593 125.922 18.9004 125.922 22.1683ZM132.067 23.8245L131.172 24.6751V27.8086H127.993V11.1338H131.172V21.0044L135.984 16.5055H139.923L134.238 21.7878L140.169 27.8086H136.118L132.067 23.8245ZM143.099 24.6751C144.129 24.6751 144.822 25.4361 144.822 26.3985C144.822 27.3162 144.151 28.0996 143.099 28.0996C142.069 28.0996 141.376 27.3162 141.376 26.3985C141.376 25.4361 142.069 24.6751 143.099 24.6751Z" fill="white"/>
</g>
<defs>
<clipPath id="clip0_1156_1468">
<rect width="371" height="44" fill="white"/>
</clipPath>
</defs>
</svg>

<svg xmlns="http://www.w3.org/2000/svg" width="371" height="44" fill="none" viewBox="0 0 371 44"><g fill="#fff" clip-path="url(#a)"><path d="m20.727 17.501.326-.47-.941-.652-.326.47zm-7.569 8.925-.326.47.941.651.326-.47zm-6.776-7.05H5.81c0 1.474-1.18 2.657-2.619 2.657v1.145c2.085 0 3.763-1.709 3.763-3.802zm-3.191 3.23v-.573c-1.44 0-2.619-1.183-2.619-2.657H-.572c0 2.093 1.678 3.802 3.763 3.802zM0 19.376h.572c0-1.475 1.18-2.658 2.619-2.658v-1.145c-2.085 0-3.763 1.71-3.763 3.803zm3.191-3.23v.572c1.44 0 2.619 1.183 2.619 2.658h1.144c0-2.094-1.678-3.803-3.763-3.803zm11.336 13.098h-.573c0 1.475-1.179 2.658-2.618 2.658v1.145c2.085 0 3.763-1.71 3.763-3.802zm-3.191 3.23v-.572c-1.44 0-2.619-1.183-2.619-2.658H7.572c0 2.094 1.679 3.803 3.764 3.803zm-3.191-3.23h.572c0-1.474 1.179-2.657 2.619-2.657v-1.145c-2.085 0-3.764 1.71-3.764 3.802zm3.19-3.23v.573c1.44 0 2.62 1.183 2.62 2.657h1.144c0-2.093-1.678-3.802-3.763-3.802zm13.5-11.975h-.573c0 1.474-1.179 2.657-2.619 2.657v1.145c2.085 0 3.764-1.709 3.764-3.802zm-3.192 3.23v-.573c-1.44 0-2.618-1.183-2.618-2.657H17.88c0 2.093 1.678 3.802 3.763 3.802zm-3.19-3.23h.572c0-1.475 1.179-2.658 2.618-2.658v-1.145c-2.085 0-3.763 1.71-3.763 3.803zm3.19-3.23v.572c1.44 0 2.62 1.183 2.62 2.658h1.144c0-2.094-1.679-3.803-3.764-3.803zm-1.387 6.366-.47-.325-6.628 9.576.47.325.471.326 6.628-9.576zM5.258 21.603l-.439.368 4.458 5.308.438-.367.438-.368-4.457-5.31zm23.57 1.662c-2.06-.291-3.514-1.656-3.514-3.581 0-1.97 2.036-3.425 3.715-3.425 1.455 0 2.574.605 3.38 1.768l-2.283 1.657c-.291-.269-.605-.47-1.03-.47s-.671.246-.671.582c0 .38.268.604 1.208.716 2.082.269 3.671 1.343 3.671 3.67 0 2.306-1.902 3.873-4.342 3.873-1.679 0-2.91-.582-3.895-1.701l2.686-1.947c.336.358.739.492 1.231.492.582 0 .85-.336.85-.761 0-.448-.29-.761-1.006-.873m17.488-1.097v5.64H43.16v-5.64c0-1.813-1.052-2.73-2.35-2.73-1.41 0-2.708.917-2.708 2.73v5.64h-3.179V16.507h3.179v.783c.626-.716 1.947-1.03 2.976-1.03 3.09 0 5.238 2.641 5.238 5.91m3.638-7.654c-.984 0-1.835-.829-1.835-1.813 0-.896.85-1.746 1.835-1.746 1.075 0 1.903.828 1.903 1.746 0 .984-.828 1.813-1.903 1.813m1.612 1.992v11.303h-3.178V16.506zm5.42 16.697h-3.178V16.506h3.179v.783c.492-.537 1.723-1.03 2.753-1.03 3.11 0 5.55 2.641 5.55 5.865 0 3.267-2.529 5.93-5.618 5.93-.94 0-2.081-.335-2.685-1.051zm2.44-13.765c-1.477 0-2.574 1.119-2.574 2.708 0 1.611 1.097 2.753 2.574 2.753 1.455 0 2.641-1.142 2.641-2.753 0-1.59-1.186-2.708-2.64-2.708m15.73 4.32 2.53 1.947c-.963 1.432-2.955 2.35-4.97 2.35-3.401 0-6.132-2.664-6.132-5.887 0-3.268 2.619-5.909 5.864-5.909 2.798 0 4.947 1.88 5.64 3.984l-6.311 4.522c.29.111.604.134.94.134.962 0 1.925-.336 2.44-1.142m-5.349-1.59c0 .269.022.515.09.739l4.118-2.932a2.55 2.55 0 0 0-1.567-.537c-1.455 0-2.64 1.141-2.64 2.73m16.35-5.864v3.29a3 3 0 0 0-1.008-.156c-1.23 0-2.283.917-2.283 2.73v5.64h-3.178V16.507h3.178v.783c.694-.739 1.634-1.03 2.507-1.03.268 0 .492 0 .783.045m8.025 3.134h-2.686v3.603c0 1.276 1.164 1.858 2.619 1.858v3.156c-3.38 0-5.797-1.992-5.797-4.924v-3.693h-1.701v-2.932h1.7v-1.478l3.179-2.305v3.783h2.686zm12.855 2.73v5.64h-3.156v-5.64c0-1.813-1.052-2.73-2.35-2.73a2.72 2.72 0 0 0-2.709 2.73v5.64h-3.178V11.135h3.178v6.177c.605-.738 1.948-1.052 2.977-1.052 3.089 0 5.238 2.641 5.238 5.91m3.638-7.654c-.985 0-1.835-.829-1.835-1.813 0-.896.85-1.746 1.835-1.746 1.074 0 1.903.828 1.903 1.746 0 .984-.829 1.813-1.903 1.813m1.612 1.992v11.303h-3.179V16.506zm13.635 5.662v5.64h-3.156v-5.64c0-1.813-1.052-2.73-2.35-2.73-1.411 0-2.709.917-2.709 2.73v5.64h-3.178V16.507h3.178v.783c.627-.716 1.948-1.03 2.977-1.03 3.089 0 5.238 2.641 5.238 5.91m6.145 1.657-.895.85v3.134h-3.179V11.134h3.179v9.87l4.812-4.498h3.939l-5.685 5.282 5.931 6.02h-4.051zm11.032.85c1.03 0 1.723.761 1.723 1.723 0 .918-.671 1.702-1.723 1.702-1.03 0-1.723-.784-1.723-1.702 0-.962.693-1.723 1.723-1.723"/></g><defs><clipPath id="a"><path fill="#fff" d="M0 0h371v44H0z"/></clipPath></defs></svg>
